images/icons/files/icon-permissions.svg

<svg xmlns="http://www.w3.org/2000/svg" width="12" height="12" viewBox="0 0 12 12"><path fill="#566371" d="M0 0h12v12h-12z"/><path fill="#FFDA5D" d="M9 6v-1h-4v-1h-3v4h3v-1h2v1h1v-1h1v1h1v-2h-1zm-5 1h-1v-2h1v2z"/></svg>

<?xml version="1.0" encoding="utf-8"?>
<!-- Generator: Adobe Illustrator 15.0.2, SVG Export Plug-In . SVG Version: 6.00 Build 0)  -->
<!DOCTYPE svg PUBLIC "-//W3C//DTD SVG 1.1//EN" "http://www.w3.org/Graphics/SVG/1.1/DTD/svg11.dtd">
<svg version="1.1" id="Permissions" xmlns="http://www.w3.org/2000/svg" xmlns:xlink="http://www.w3.org/1999/xlink" x="0px"
	 y="0px" width="12px" height="12px" viewBox="0 0 12 12" enable-background="new 0 0 12 12" xml:space="preserve">
<rect fill="#566371" width="12" height="12"/>
<path fill="#FFDA5D" d="M9,6V5H5V4H2v4h3V7h2v1h1V7h1v1h1V6H9z M4,7H3V5h1V7z"/>
</svg>
